X: 1
P: Bonny Dundee (pipes version)
C: Trad., from Matt Petrie, arr. by T. Traub 4-23-2004
R: jig
M: 6/8
L: 1/8
K: A
|: cd|"A"efe ece|"D"agf "A"e2 d|"A"c<eA "F#m"c<ec|"Bm"BcB "E"Bcd|"A"efe ece|
"D"agf "E"e2 d|"A"c<eA "E"c<ec|"D"ABA "A"A :||: z G|"A"ABA "D"d2 c|"G"BcB B3|
"E"BcB Bcd|"A"cdB c2 A|"A"cBc "E"dcd|"A"ede "D"fed|"A"c<eA "E"c<ec|"D"ABA "A"A :|
